!!!SOCIAL_FUNCTION:	songs used in the treatment of the sick
!!!PDT:	1929
!!!OTL: No_79_Yonder_Lies_the_Spirit_Land.krn
!!!REG: Southwest
!!!LANG: Non-Tone
!!!LING_GROUP: Uto-Aztecan
**kern
*staff1
*clefF4
*k[b-e-a-d-g-]
*M3/4
4A-\
=1
8e-\L
8e-\J
8d-\L
8d-\J
4d-\
=2||
*M2/4
4.e-\
8d-\
=3||
*M3/4
4d-\
4A-\
4d-\
=4
8e-\L
8e-\J
8e-\L
8d-\J
4d-\
=5||
*M2/4
4.d-\
8B-\
=6
4A-\
4F\
=7
4F\
8A-\L
8A-\J
=8
2A-\
=9
4A-\
4r
=10
4d-\
8e-\L
8e-\J
=11
4d-\
8d-\L
8B-\J
=12
4A-\
4F\
=13
4F\
8.B-\L
16A-\Jk
=14
4A-\
8A-\L
8A-\J
=15
4A-\
4F\
=16
4F\
8A-\L
8A-\J
=17
2A-\
=18
4.A-\
8A-\
=19
2A-\
==:|!
*-
